images/icons/v2/emoji-symbol-solid-20.svg

<svg height="20" width="20" xmlns="http://www.w3.org/2000/svg">
  <path d="M16 2H4a3 3 0 00-3 3v10a3 3 0 003 3h12a3 3 0 003-3V5a3 3 0 00-3-3zm-.829 6.911h-2.378l-.464 2.178h2.077v1.451h-2.38L11.5 15h-1.489l.523-2.46H8.4L7.873 15H6.381l.524-2.46H4.829v-1.451h2.378l.464-2.178H5.594V7.46h2.38L8.5 5h1.49l-.524 2.46H11.6L12.127 5h1.492L13.1 7.46h2.076zm-6.008 0H11.3l-.464 2.178H8.7z"/>
</svg>

<svg xmlns="http://www.w3.org/2000/svg" width="20" height="20" viewBox="0 0 20 20"><title>emoji-symbol-solid-20</title><path d="M16,2H4A3,3,0,0,0,1,5V15a3,3,0,0,0,3,3H16a3,3,0,0,0,3-3V5A3,3,0,0,0,16,2Zm-.829,6.911H12.793l-.464,2.178h2.077V12.54h-2.38L11.5,15H10.011l.523-2.46H8.4L7.873,15H6.381l.524-2.46H4.829V11.089H7.207l.464-2.178H5.594V7.46h2.38L8.5,5H9.99L9.466,7.46H11.6L12.127,5h1.492L13.1,7.46h2.076Zm-6.008,0H11.3l-.464,2.178H8.7Z"/></svg>
